X: 21083
M: 3/4
L: 1/8
K: Eb
|:\
|:\
|:\
"TRIO."|:\
(GAGAGA) | (G=Bdf)ec | (FGFGFG) | F=Aced_B |\


